X:1
T:Never Say No, When the Master Calls
T:Never Say No, When the Master Calls
T:Henry L. Frisbie
T:Henry L. Frisbie, 1906
T:Public Domain Courtesy of the Cyber Hymnal™
T:Public Domain Courtesy of the Cyber Hymnal™
C:Henry L. Frisbie
Z:Public Domain
Z:Courtesy of the Cyber Hymnal™
%%score ( 1 2 ) ( 3 4 )
L:1/8
M:6/4
K:D
V:1 treble 
V:2 treble 
V:3 bass 
V:4 bass 
V:1
 [DF]2 | [FA]3 [FA] [FA]2 [FA]2 [^E^G]2 [FA]2 | [GB]4 [FA]2 [DF]4 [FA]2 | %3
w: 1.~Wher-|ev- er my path- way of|du- ty leads, Thro’|
w: 2.~If|dark- ness or sun- shine be|’round my way, To|
w: 3.~If|in- to the bat- tle, or|called to stand And|
w: 4.~He|nev- er for- sakes me, my|strength and song! No|
 [EA]3 [CE] [DF]2 [EG]2 [DF]2 [CE]2 | [DF]4 [GB]2 [FA]4 [FA]2 | %5
w: sands of the de- sert, or|fra- grant meads, O|
w: ev- er be faith- ful, my|Lord, I pray; In|
w: wait with my ar- mor and|sword in hand, His|
w: ser- vice a bur- den, no|strug- gle long! His|
 [GB]3 [GB] [GB]2 [Bd]2 [Ac]2 [GB]2 | [FA]2 [DF]2 [FA]2 [Fd]4 [Dd][Dd] | %7
w: may I be faith- ful, what-|ev- er be- falls, May I|
w: low- li- est cot- tage, or|proud- est of halls, May I|
w: will shall be mine, for no|dan- ger ap- palls, If I|
w: care is a- round me like|shel- ter- ing walls, If I|
 [Gc] [Gc]3 [EA]2 [Dd]4 [DA][DG] | [DF]4 [CE]2 !fermata!D4 ||"^Refrain" D[DE] | %10
w: nev- er say no, when the|Mas- ter calls.||
w: nev- er say no, when the|Mas- ter calls.|May I|
w: nev- er say no, when the|Mas- ter calls.||
w: nev- er say no, when the|Mas- ter calls.||
 [DF] [DF]3 [FA]2 [EG]4 [CE][DF] | [EG]4 [GB]2 [FA]4 [FA][FA] | [GB] [Gd]3 [Gd]2 [Gd]4 [Gc][GB] | %13
w: |||
w: nev- er say no, when the|Mas- ter calls, May I|nev- er say no, when the|
w: |||
w: |||
 [FA]4 [DF]2 !fermata![CE]4 [CE]2 | [DF] [DF]3 [DA]2 [CG]3 [CG] [EB]2 | %15
w: ||
w: Mas- ter calls; What-|ev- er it be He re-|
w: ||
w: ||
 A4 [A=c]2 !fermata![GB]4 [Gd][Gd] | [Gc] [Gc]3 [EA]2 [Dd]4 [DA][DG] | [DF]4 [CE]2 !fermata!D4 |] %18
w: |||
w: quires of me, May I|nev- er say no, when the|Mas- ter calls.|
w: |||
w: |||
V:2
 x2 | x12 | x12 | x12 | x12 | x12 | x12 | x12 | x6 D4 || D x | x12 | x12 | x12 | x12 | x12 | %15
 A4 x8 | x12 | x6 D4 |] %18
V:3
 [D,A,]2 | [D,D]3 [D,D] [D,D]2 [D,D]2 [D,D]2 [D,D]2 | [D,D]4 [D,D]2 [D,A,]4 [D,D]2 | %3
 [A,,C]3 [A,,A,] [A,,A,]2 [A,,A,]2 [A,,A,]2 [A,,A,]2 | [D,A,]4 [D,D]2 [D,D]4 [D,D]2 | %5
 [G,D]3 [G,D] [G,D]2 [G,D]2 [G,D]2 [G,D]2 | [D,D]2 [D,A,]2 [D,D]2 [D,A,]4 [F,A,][F,A,] | %7
 [E,A,] [E,A,]3 [G,A,]2 [F,A,]4 [G,B,][G,B,] | A,4 [A,,G,]2 !fermata![D,F,]4 || [D,F,][D,G,] | %10
 [D,A,] [D,A,]3 [D,A,]2 [A,,A,]4 [A,,A,][A,,A,] | [A,,A,]4 [A,,C]2 [D,D]4 [D,D][D,D] | %12
 [G,D] [G,B,]3 [G,B,]2 [G,B,]4 [G,B,][G,D] | [D,D]4 [D,A,]2 [A,,A,]4 [A,,A,]2 | %14
 [D,A,] [D,A,]3 [F,A,]2 [E,A,]3 [E,A,] [G,C]2 | [F,D]4 [F,D]2 [G,D]4 [G,B,][G,B,] | %16
 A, A,3 [G,A,]2 [F,A,]4 [G,B,][G,B,] | A,4 [A,,G,]2 !fermata![D,F,]4 |] %18
V:4
 x2 | x12 | x12 | x12 | x12 | x12 | x12 | x12 | A,4 x6 || x2 | x12 | x12 | x12 | x12 | x12 | x12 | %16
 A, A,3 x8 | A,4 x6 |] %18

